!!!!SEGMENT: 008-1-Sm-003.krn
!!!COM: Chopin, Fryderyk
!!!OTL: Premier Trio pour Piano, Violon et Violoncelle
!!!OPS: Op. 8
!!!PPR: M. Schlesinger
!!!PPP: Paris
!!!OMV: 3
!!!AGN: Trio
!!!NIFC-rismID: 300605222
!!!NIFC-shelfmark: PL-Wbfc 2213/n
!!!OMD: Sostenuto. M.M. [quarter] = 63.
**kern	**kern	**dynam	**kern	**dynam	**kern	**dynam
*part3	*part3	*part3	*part2	*part2	*part1	*part1
*I"[Piano]	*	*	*I"VIOLONCELLO.	*	*I"VIOLINO.	*
*staff4	*staff3	*	*staff2	*	*staff1	*
*clefF4	*clefG2	*	*clefF4	*	*clefG2	*
*k[b-e-a-]	*k[b-e-a-]	*	*k[b-e-a-]	*	*k[b-e-a-]	*
*E-:	*E-:	*	*E-:	*	*E-:	*
*M3/4	*M3/4	*	*M3/4	*	*M3/4	*
=1	=1	=1	=1	=1	=1	=1
!	!LO:TX:a:B:t=ADAGIO.	!	!LO:TX:a:B:t=ADAGIO.	!	!LO:TX:a:B:t=ADAGIO.	!
!	!LO:TX:t=con forza.	!LO:DY:rj	!LO:TX:a:t=1	!	!LO:TX:t=P:pionowy znak w takcie:problem	!
!	!	!	!	!	!LO:TX:a:t=2	!
4..EE-\	4..e- 4..E-<	f	2.rF	.	2.rdd	.
16EE-\	16e- 16E-<	.	.	.	.	.
*Xtuplet	*	*	*	*	*	*
12EE-L<	(>12e-L 12E-<	.	.	.	.	.
12BB- 12BBB-	12B-<	.	.	.	.	.
24rFF	24rd	.	.	.	.	.
24C-XJk 24CC-X	24c-XJk)	.	.	.	.	.
*tuplet	*	*	*clefC4	*	*	*
=2	=2	=2	=2	=2	=2	=2
!	!LO:TX:a:t=P:w źródle błędy kasownik zamiast bemola przy 2.c-:problem	!	!	!LO:DY:rj	!	!
[<2.C-X\ [2.CC-X\	[2.g-X^> (>2.e- [>2.c- [>2.G-X<	.	4.c-X	p>	2.rdd	.
.	.	.	8c-	.	.	.
!	!	!	!LO:TX:a:t=P:note-head-side tuplet number:problem	!	!	!
.	.	.	(>12c-L	.	.	.
.	.	.	12G-X	.	.	.
.	.	.	12A-J)	]	.	.
=3	=3	=3	=3	=3	=3	=3
*ped	*	*	*	*	*	*
!	!	!	!	!	!	!LO:DY:rj
4C-X\] 4CC-X\]	4g-X]) 4e- 4c-X] 4G-X<]	.	(>2.An	<	4.g-X^<	f
4c-y 4G-y 4C-y	4aan 4ee- 4any	.	.	.	.	.
.	.	.	.	.	8g-	.
*Xped	*	*	*	*	*	*
!	!	!	!	!	!LO:TX:t=P:stem-side tuplet number:problem	!
4r	4r	.	.	.	(>(<12g-L	.
.	.	.	.	.	12.d)	[
.	.	.	.	.	(<24e-Jk)	.
*ped	*	*	*	*	*	*
=4	=4	=4	=4	=4	=4	=4
!	!	!LO:DY:rj	!	!	!	!
4BB- 4BBB-	4b- 4d 4A-X	fz	4.B-)	[>	4.f^<)	.
*Xped	*	*	*	*	*	*
!	!	!LO:DY:rj	!	!	!	!
16f 16B-	16bb- 16dd 16b- 16a-	fz	.	.	.	.
16rAA	(16An<LL	.	.	.	.	.
8rBB	16B-<	.	8r	]	8r	.
.	16dJJ	.	.	.	.	.
4rBB	16fLL	p<	4r	.	4r	.
.	16a-X	.	.	.	.	.
.	16cc	.	.	.	.	.
.	16b-JJ)	[	.	.	.	.
!!LO:LB:g=original
*	*	*	*clefF4	*	*	*
=5	=5	=5	=5	=5	=5	=5
*^	*^	*	*	*	*	*
!	!	!	!	!	!	!LO:DY:rj	!	!
2B-	4E-	4.ee-	4g	.	4E-	p	(<4g	p
!	!	!	!LO:TX:t=espress.	!	!	!	!	!
.	2F	.	2a-	.	2F^<	.	4a-	.
*	*	*Xtuplet	*	*	*	*	*	*
.	.	(<40ddLLL	.	.	.	.	.	.
.	.	40ee-	.	.	.	.	.	.
.	.	40dd	.	.	.	.	.	.
.	.	40cc#X	.	.	.	.	.	.
.	.	40ddJJJ)	.	.	.	.	.	.
*	*	*tuplet	*	*	*	*	*	*
!LO:TX:a:t=P:note-head-side tuplet number:problem	!	!	!	!	!	!	!	!
(<12c-XL	.	8.ggL	.	>	.	.	4d	.
12B-	.	.	.	.	.	.	.	.
12dJ)	.	.	.	.	.	.	.	.
.	.	16ffJk	.	]	.	.	.	.
*v	*v	*	*	*	*	*	*	*
=6	=6	=6	=6	=6	=6	=6	=6
4G	8.b-L	4e-	]	4G	.	4e-	.
.	16bnJk	.	.	.	.	.	.
4A-: 4E-: 4AA-:	4cc: 4e-: 4c:	2rAyy	.	8A-^<	.	8c)	.
.	.	.	.	8r	.	8r	.
8r	8r	.	.	8r	.	8r	.
(8c 8A-	8cc 8e-	.	.	(>8A-	.	(<8e-	.
=7	=7	=7	=7	=7	=7	=7	=7
!	!LO:TX:a:t=P:kasownik przed $:problem	!	!	!	!	!	!
4c 4G	(>8b-$L	4en	.	4G	.	4en)	.
.	8ccJ	.	.	.	.	.	.
4c 4F)	8b-L	4f	.	4F	.	4f	.
.	8a-J	.	.	.	.	.	.
!	!	!	!	!	!	!	!LO:HP:a
4G 4E-	8gL 8c<	4rFyy	.	4E-)	.	8.gL	<
.	8c<J)	.	.	.	.	.	.
!	!	!	!	!	!	!LO:TX:t=espres.	!
.	.	.	.	.	.	(<16a-Jk	[[
=8	=8	=8	=8	=8	=8	=8	=8
2A- 2D	4.c^<	2rFyy	.	2.D	.	4g^>	[
.	.	.	.	.	.	4.f)	.
.	8Bn	.	.	.	.	.	.
4D	4f	(<8B-X<L	.	.	.	.	.
.	.	8A-<J)	.	.	.	8B-	.
!!LO:LB:g=original
=9	=9	=9	=9	=9	=9	=9	=9
!	!	!	!	!	!	!	!LO:DY:rj
4E-	[4e- 4G<	2rDyy	.	(>4E-	.	2e-	p
4E- 4C	16e-LL] 16c 16A-<	.	.	4C	.	.	.
.	(<32fL	.	.	.	.	.	.
.	32e-JJJ	.	.	.	.	.	.
.	32dLLL	.	.	.	.	.	.
.	32e-	.	.	.	.	.	.
.	32a-	.	.	.	.	.	.
.	32ccJJJ)	.	[	.	.	.	.
!	!	!LO:TX:t=cresc _:problem:dynamics with extention lines	!	!	!	!	!
!	!	!	!LO:HP:b:t=cresc	!	!	!	!
4B- 4D	8.ccL	4a- 4f	<	4D)	.	4f	.
.	16b-Jk	.	.	.	.	.	.
!!LO:LB:g=original
=10	=10	=10	=10	=10	=10	=10	=10
4B- 4E-	[4b-	4g	.	(>4E-	.	4g	.
4e- 4G	(<16b-LL>]	4reyy	.	4G^<	.	2e-^>	pp
.	32ccL	.	.	.	.	.	.
.	32b-JJJ	.	.	.	.	.	.
.	32anLLL>	.	.	.	.	.	.
.	32b-	.	.	.	.	.	.
.	32ee-	.	.	.	.	.	.
!	!LO:N:vis=32	!	!	!	!	!	!
.	64rdd	.	.	.	.	.	.
.	64ggJJJk)	.	[	.	.	.	.
4e- 4c 4F	8.ggL	4an^<	.	4F	.	.	.
.	16ffJk	.	.	.	.	.	.
!!LO:LB:g=original
=11	=11	=11	=11	=11	=11	=11	=11
4d 4B-	8.ffL	4fX^<	.	4B-)	]	8d	.
.	.	.	.	.	.	8r	.
.	32ddLL	.	.	.	.	.	.
.	32b-JJJ	.	.	.	.	.	.
8r	8a-L	2rcyy	p	8r	.	8r	.
!	!	!	!	!	!	!	!LO:HP:a
(8BB-'<L	(<8a-'< 8f'<	.	<	8BB-^<L	.	8dL	<
8BBn'<	8a-'< 8f'< 8d'<	.	.	8BBn^<	.	8d	.
8C'<J)	8a-'<J 8f'< 8c'<)	.	[	8C^<J	.	8cJ	.
!!LO:LB:g=original
=12	=12	=12	=12	=12	=12	=12	=12
.	(32qqg/LLL	.	.	.	.	.	.
.	32qqa-/	.	.	.	.	.	.
.	32qqb-/JJJ)	.	.	.	.	.	.
!	!LO:TX:a:t=P:diminuendolike accent:problem	!	!	!	!	!	!
4.D	8.a-^>L	4.f 4.Bn	.	4.D	.	4.Bn	[
.	16gJk	.	.	.	.	.	.
.	8g	.	.	.	.	.	.
16r	16r	16rcyy	.	16r	.	8r	.
16E-	16rddyy	16g`>\ 16e-`>\ 16c`>\	.	16E-KL	.	.	.
.	(>8qg/	.	.	.	.	.	.
!LO:TX:a:t=P:diminuendolike accent:problem	!	!	!	!	!	!	!
8.AA-^>L	8.fL	8cL	.	(<8AA-	.	4r	.
.	.	8dJ 8A-	.	8BB-J	.	.	.
16BB-J	16e-Jk)	.	.	.	.	.	.
*	*v	*v	*	*	*	*	*
=13	=13	=13	=13	=13	=13	=13
!	!LO:TX:t=P:note-head-side tuplet number:problem	!	!	!	!LO:TX:t=espres.	!
2.E-\ 2.EE-\	(>12e-L 12G<	p	8EE-`<)	.	4ee-	.
.	12B-	.	.	.	.	.
.	.	.	8r	.	.	.
.	12gJ	.	.	.	.	.
*	*Xtuplet	*	*	*	*	*
!	!	!	!	!	!LO:TX:a:t=P:note-head-side tuplet number:problem	!
.	12fL 12A-X	.	4r	.	(>20ddLL	.
.	.	.	.	.	20ee-	.
.	12c-X	.	.	.	.	.
.	.	.	.	.	20dd	.
.	.	.	.	.	20cc#X	.
.	12a-J	.	.	.	.	.
.	.	.	.	.	20ddJJ)	.
.	12dL	.	4r	.	8.gg^<L	.
.	12c-	.	.	.	.	.
.	12A-J)	.	.	.	.	.
.	.	.	.	.	16ffJk	.
=14	=14	=14	=14	=14	=14	=14
4E-\ 4EE-\	(>12e-L 12G<	.	4EE-	.	(>8.b-L	.
.	12B-	.	.	.	.	.
.	12gJ	.	.	.	.	.
.	.	.	.	.	16bnJk	.
4.AA-\	12e-L 12A-	.	[4AA-^<	.	4cc)	.
.	12c	.	.	.	.	.
.	12a-J	.	.	.	.	.
!	!	!	!LO:TX:t=P:note-head-side tuplet number:problem	!	!	!
.	12e-L	.	(<24AA-LL]	.	8r	.
.	.	.	24BB-	.	.	.
.	12c	.	24AA-	.	.	.
8r	.	.	24GG	.	8cc	.
.	12A-J)	.	24AA-	.	.	.
.	.	.	24BB-JJ)	.	.	.
=15	=15	=15	=15	=15	=15	=15
!	!	!	!	!	!LO:TX:t=P:note-head-side tuplet number:problem	!
(>\4C	12enL 12B-	.	8C	.	(>24b-LL	.
.	.	.	.	.	24cc	.
.	12c	.	.	.	24b-	.
.	.	.	8r	.	24an	.
.	12gJ	.	.	.	24b-	.
.	.	.	.	.	24ccJJ)	.
4F	12fL 12A-	.	4F	.	(>8b-L<	.
.	12c	.	.	.	.	.
.	.	.	.	.	8a-X	.
.	12fJ	.	.	.	.	.
4E-)	12gL	.	4E-	.	8g	.
.	12c	.	.	.	.	.
.	.	.	.	.	8a-J)	.
.	12GJ	.	.	.	.	.
!!LO:LB:g=original
=16	=16	=16	=16	=16	=16	=16
2D^<	(<12A-L	.	2D^<	.	(<4g^<	.
.	12c	.	.	.	.	.
.	12A-J	.	.	.	.	.
.	12c-XL	.	.	.	4f)	.
.	12A-	.	.	.	.	.
.	12c-J	.	.	.	.	.
!	!	!	!	!	!LO:TX:a:t=P:note-head-side tuplet number:problem	!
4D	12fL 12A-	.	4D	.	(<24enLL	.
.	.	.	.	.	24f	.
.	12B-	.	.	.	24g	.
.	.	.	.	.	24f	.
.	12A-J)	.	.	.	24a-	.
.	.	.	.	.	24gJJ)	.
!!LO:LB:g=original
=17	=17	=17	=17	=17	=17	=17
!	!LO:TX:t=marcato.	!	!	!	!	!
4E-	12GL	.	(4E-	.	2e-	.
.	12B-	<	.	.	.	.
.	12gJ	.	.	.	.	.
4D	12e-L 12G	.	4D	.	.	.
.	12B-	.	.	.	.	.
.	12gJ	.	.	.	.	.
!	!	!	!	!	!LO:TX:t=P:note-head-side tuplet number:problem	!LO:HP:a
4D-X	12e-L 12G	[	4D-X	.	(<24dLL	<
.	.	.	.	.	24e-	.
.	12B-	.	.	.	24f	.
.	.	.	.	.	24g	.
.	12gJ	.	.	.	24a-	.
.	.	.	.	.	24b-JJ)	[[
!!LO:LB:g=original
=18	=18	=18	=18	=18	=18	=18
!	!LO:TX:t=cres _:problem:dynamics with extention lines	!	!	!	!	!
!	!	!LO:HP:b:t=cres	!	!	!	!
4C\	(>12e-L 12A-X<	<	4C	.	8dd-X^>L	.
.	12E-<	.	.	.	.	.
.	.	.	.	.	8ccJ	.
.	12a-J	.	.	.	.	.
*	*	*	*	*	*Xtuplet	*
4BB-\	12e-L 12d-X	.	4BB-	.	(>24gLL	.
.	.	.	.	.	24b-	<
.	12E-<	.	.	.	24g	.
.	.	.	.	.	24b-	.
.	12b-J	.	.	.	24ff	.
.	.	.	.	.	24ee-JJ)	[
*	*	*	*	*	*tuplet	*
4AA-\	12e-L 12c	.	4AA-	.	8dd-XL	.
.	12E-<	.	.	.	.	.
.	.	.	.	.	8ccJ)	.
.	12ccJ	[	.	.	.	.
=19	=19	=19	=19	=19	=19	=19
2AA-\ 2AAA-\	12fL 12c	>	2AA-)	.	(>16bnLL	.
.	.	.	.	.	16cc	.
.	12F<	.	.	.	.	.
.	.	.	.	.	16dd	.
.	12a-J	.	.	.	.	.
.	.	.	.	.	16ccJJ)	.
!	!	!LO:DY:rj	!	!	!LO:TX:a:t=P:note-head-side tuplet number:problem	!
.	12fL 12c	p	.	.	(<14g^>L	>
.	.	.	.	.	14a-^>	.
.	12A-<	.	.	.	.	.
.	.	.	.	.	14b-y^>	.
.	12ccJ	.	.	.	.	.
.	.	.	.	.	14a-	.
4BB-\ 4BBB-\	12fL 12d	.	4BB-)	.	.	.
.	.	.	.	.	14f	.
.	12A-<	.	.	.	.	.
.	.	.	.	.	14c	.
.	12b-J)	.	.	.	.	.
.	.	.	.	.	14dJ)	.
!!LO:LB:g=original
=20	=20	=20	=20	=20	=20	=20
!	!	!	!	!	!	!LO:DY:rj
4BB-\ 4BBB-\	4d 4A-<	>	(<4BB-	.	(<4f^<	p
8EE-\	8e- 8G<	]	8EE-)	.	8e-)	.
8r	8r	.	8r	.	8r	.
!	!	!	!LO:TX:b:t=espres.	!	!	!
4r	4r	.	(>4G	.	4r	.
=21	=21	=21	=21	=21	=21	=21
!	!	!	!	!	!LO:TX:t=P:P:znak pionowy i poziomy w takcie:problem	!
4Bn: 4A-X: 4F: 4D: 4BBny:	4dd: 4a-X: 4f: 4d:	fz	8.BBnL)	.	2.rdd	.
.	.	.	16DJk	.	.	.
*	*	*	*Xtuplet	*	*	*
4r	4r	.	(>20FLL	<	.	.
.	.	.	20G	.	.	.
.	.	.	20F	.	.	.
.	.	.	20En	.	.	.
.	.	.	20FJJ)	[	.	.
*	*	*	*tuplet	*	*	*
8.r	8.r	.	8.B-XL	>	.	.
!	!	!LO:DY:rj	!	!	!	!
16c	16cc 16a- 16f	f	16A-XJk	]	.	.
=22	=22	=22	=22	=22	=22	=22
4.d	4.bn 4.f	.	(4A-^<	[	2.rdd	.
.	.	.	4G)	.	.	.
16r	8r	.	.	.	.	.
16G	.	.	.	.	.	.
!LO:TX:t=P:note-head-side tuplet number:problem	!	!	!	!	!	!
(12GL	4r	.	8.BnL	<	.	.
12D	.	.	.	.	.	.
24r	.	.	.	.	.	.
.	.	.	(>16cJk	[	.	.
24E-Jk)	.	.	.	.	.	.
=23	=23	=23	=23	=23	=23	=23
!	!	!LO:DY:rj	!	!	!	!
4Bn: 4G: 4D: 4BBn:	4dd 4g 4f 4d	fz	8.dL	.	2.rdd	.
.	.	.	16BnJk)	>	.	.
*clefG2	*	*	*	*	*	*
!	!	!LO:DY:rj	!	!	!	!
8bn 8g 8d 8Bn	8ddd 8gg 8ff 8dd	fz	(>16GLL	]	.	.
.	.	.	16A-	.	.	.
8r	8r	.	16B-X	.	.	.
.	.	.	16A-JJ)	.	.	.
4r	4r	.	(8.G^<L	.	.	.
.	.	.	16FJk)	.	.	.
*clefF4	*	*	*	*	*	*
!!LO:PB:g=original
=24	=24	=24	=24	=24	=24	=24
2BB-X\ 2BBB-X\	12rG<	.	(>4F^<	.	4r	.
!	!	!LO:DY:rj	!	!	!	!
.	(>12G<L	p	.	.	.	.
.	12d-XJ	.	.	.	.	.
.	12gL	.	4En)	.	4r	.
.	12d-	.	.	.	.	.
.	12G<J	.	.	.	.	.
4D-X\ 4DD-X\	12fL	.	(>4D-X^<	.	(4b-	.
.	12B-<	.	.	.	.	.
.	12F<J)	.	.	.	.	.
!!LO:LB:g=original
=25	=25	=25	=25	=25	=25	=25
!	!	!	!	!	!LO:TX:a:B:t=appassionato.	!
[<2.C\ [2.CC\	(>12B-<L	.	8C)	.	8.enL)	.
.	12G<	.	.	.	.	.
.	.	.	8r	.	.	.
.	12enJ	.	.	.	.	.
.	.	.	.	.	16gJk	.
*	*	*	*clefC4	*	*	*
!	!	!	!	!	!LO:TX:a:t=P:note-head-side tuplet number:problem	!
.	12B-<L	.	(>4en	<	(>20b-LL	.
.	.	.	.	.	20cc	<
.	12G<	.	.	.	.	.
.	.	.	.	.	20b-	.
.	.	.	.	.	20an	.
.	12gJ	.	.	.	.	.
.	.	.	.	.	20b-JJ)	[
.	12fL	.	4f	[	8.ee-XL	>
.	12B-	.	.	.	.	.
.	12F<J)	.	.	.	.	.
.	.	.	.	.	16dd-XJk	]
!!LO:LB:g=original
=26	=26	=26	=26	=26	=26	=26
2.C\] 2.CC\]	(>12B-<L	.	8c)	[	(>4dd-X^<	[
.	12g	.	.	.	.	.
.	.	.	8r	.	.	.
*	*ped	*	*	*	*	*
.	12G<J	.	.	.	.	.
!	!	!	!LO:N:vis=8	!	!	!
.	12enL	<	4r	.	4cc)	.
.	12G<	.	.	.	.	.
.	12b-J	.	.	.	.	.
!	!LO:TX:t=sempre	!	!LO:TX:t=P:note-head-side tuplet number:problem	!	!	!
.	12gL	[	(>12cL	.	(8.eenL	.
.	12e	.	12.G	.	.	.
.	12B-J)	.	.	.	.	.
.	.	.	.	.	16ffJk)	.
.	.	.	24A-Jk)	.	.	.
=27	=27	=27	=27	=27	=27	=27
2.C\ 2.CC\	(>12enL	.	4.B-	.	8.gg^<L	.
!	!LO:TX:t=piano.	!	!	!	!	!
.	12G<	.	.	.	.	.
.	12gJ	.	.	.	.	.
.	.	.	.	.	16eenJk	.
.	12eL	>	.	.	(>16ccLL	.
.	.	.	.	.	16dd-X	.
.	12G<	.	.	.	.	.
.	.	.	8r	.	16ee-y	.
.	12b-J	]	.	.	.	.
.	.	.	.	.	16dd-JJ	.
.	12gL	.	8r	.	8.cc^<L	.
.	12e	.	.	.	.	.
.	.	.	16r	.	.	.
*	*Xped	*	*	*	*	*
.	12B-J)	.	.	.	.	.
*	*	*	*clefF4	*	*	*
.	.	.	16C	.	16b-Jk)	.
=28	=28	=28	=28	=28	=28	=28
2.D-X\ 2.DD-X\	12r	.	[2.D-X	.	4b-	.
.	(>12G<L	.	.	.	.	.
.	12enJ	.	.	.	.	.
.	12fL 12A-X<	.	.	.	2a-	.
.	12d-X	.	.	.	.	.
.	12A-<J	.	.	.	.	.
.	12fL	.	.	.	.	.
.	12d-	.	.	.	.	.
.	12A-<J)	.	.	.	.	.
!!LO:LB:g=original
=29	=29	=29	=29	=29	=29	=29
!	!LO:TX:t=poco_cres_:dur=5q:ext=ud:problem:text with extention lines	!	!	!	!	!
4D-X\ 4DD-X\	(>12Bn<L	.	4D-X]	.	2a-	<
.	12F<	.	.	.	.	.
.	12fJ	.	.	.	.	.
2C\ 2CC\	12B<L	.	2C^<	.	.	.
.	12F<	.	.	.	.	.
.	[12fJ	.	.	.	.	.
!	!	!	!	!	!LO:TX:t=P:diminuendolike accent:problem	!
.	12fL 12c]	.	.	.	8.g^<L	<
.	12en	.	.	.	.	.
.	12G<J)	.	.	.	.	.
.	.	.	.	.	16ccJk	.
=30	=30	=30	=30	=30	=30	=30
*	*^	*	*	*	*	*
4E-\ 4EE-\	12c#XL	2rAyy	.	4E-	.	2b-	<
.	12G<	.	.	.	.	.	.
.	12gJ	.	.	.	.	.	.
2D\ 2DD\	12c#L	.	.	2D^</	.	.	.
.	12G<	.	.	.	.	.	.
.	[<12gJ	.	.	.	.	.	.
.	12g^>L]	4d	.	.	.	8.anL	.
.	12f#X	.	.	.	.	.	.
.	12A-<J	.	.	.	.	.	.
.	.	.	.	.	.	16ddJk	.
*	*v	*v	*	*	*	*	*
=31	=31	=31	=31	=31	=31	=31
!	!	!	!	!	!	!LO:DY:rj
2.E-\ 2.EE-\	(>12gL	p	2.E-^<	.	(>4dd	f
.	12G<	.	.	.	.	.
.	12gJ	.	.	.	.	.
.	12G<L	.	.	.	8ccL<	>
.	12c	.	.	.	.	.
.	.	.	.	.	8b-	]
.	12gJ	.	.	.	.	.
.	12c#XL	.	.	.	8an	p
.	12G<	.	.	.	.	.
.	.	.	.	.	8gJ)	.
.	12gJ)	.	.	.	.	.
!!LO:LB:g=original
=32	=32	=32	=32	=32	=32	=32
*^	*	*	*	*	*	*
!	!	!	!	!	!LO:DY:rj	!	!
2D\ 2DD\	2rAAAyy	(>12f#XL	>	2.D	pp	2an	.
.	.	12d	.	.	.	.	.
.	.	12An<J	.	.	.	.	.
.	.	12fnL	.	.	.	.	.
.	.	12d	.	.	.	.	.
.	.	12A<J)	<	.	.	.	.
!	!	!	!	!	!	!LO:TX:a:t=P:note-head-side tuplet number:problem	!
16A-XKL	4D	(>8.fL	.	.	.	(12b-L	.
8.B-J	.	.	.	.	.	.	.
.	.	.	.	.	.	12.cc	.
.	.	16f#XJk	[[	.	.	.	.
.	.	.	.	.	.	24b-Jk)	.
=33	=33	=33	=33	=33	=33	=33	=33
*	*	*^	*	*	*	*	*
2B-	4E-	4.ee-)	4g	f	4E-	<	(<2b-	[
.	2F	.	2a-	.	2F]	[>	.	.
!	!	!LO:TX:t=P:grupa niemiarowa w jednej linii z 2a-:problem	!	!	!	!	!	!
.	.	(<40ddLLL	.	<	.	.	.	.
.	.	40ee-	.	.	.	.	.	.
.	.	40dd	.	.	.	.	.	.
.	.	40cc#X	.	.	.	.	.	.
.	.	40ddJJJ	.	.	.	.	.	.
*Xtuplet	*	*	*	*	*	*	*	*
(<12c-XL	.	8.ggL)	.	[	.	.	4d	.
12.B-	.	.	.	.	.	.	.	.
.	.	16ffJk	.	.	.	.	.	.
24dJk)	.	.	.	.	.	.	.	.
*v	*v	*	*	*	*	*	*	*
!!LO:LB:g=original
=34	=34	=34	=34	=34	=34	=34	=34
4G	8.b-L	4e-	<	(>4G	.	4e-	.
.	16bnJk	.	.	.	.	.	.
4A-: 4E-: 4AA-:	4cc: 4a-: 4e-: 4c:	2rAyy	.	8A-)	.	8c)	.
.	.	.	.	8r	.	8r	.
8r	8r	.	.	8r	.	4r	.
8c 8A-	8cc 8e-	.	.	(>8A-	.	.	.
=35	=35	=35	=35	=35	=35	=35	=35
!	!	!	!	!	!	!	!LO:DY:rj
4c 4G	24b-LL	(<4en	>	4G	>	[2.c	p
.	24cc	.	.	.	.	.	.
.	24b-	.	.	.	.	.	.
.	24an	.	.	.	.	.	.
.	24b-	.	.	.	.	.	.
.	24ccJJ	.	]	.	.	.	.
4c 4F	8b-L	4f)	.	4F	.	.	.
.	8a-XJ	.	.	.	.	.	.
*	*tuplet	*	*	*	*	*	*
!	!LO:TX:t=P:note-head-side tuplet number:problem	!	!	!	!	!	!
4G 4E-	(<28gLL	4c	.	4E-	]	.	.
.	28a-	.	.	.	.	.	.
.	28g	.	.	.	.	.	.
.	28f#X	.	.	.	.	.	.
.	28g	.	.	.	.	.	.
.	28b-	.	.	.	.	.	.
.	28a-JJ)	.	.	.	.	.	.
*	*v	*v	*	*	*	*	*
=36	=36	=36	=36	=36	=36	=36
*	*^	*	*	*	*	*
4A- 4D	8g^>L	4c	.	4D)	.	4.c]	.
.	8fJ	.	.	.	.	.	.
4r	4r	4ryy	.	4r	.	.	.
!	!	!	!	!	!	!LO:TX:a:t=con forza.	!
.	.	.	.	.	.	(<8Bn	.
4D	4f 4B-< 4A-<	4ryy	.	(>4D	.	16B-XLL	.
.	.	.	.	.	.	16c	.
.	.	.	.	.	.	16A-X	.
.	.	.	.	.	.	16B-JJ	.
!!LO:LB:g=original
*	*v	*v	*	*	*	*	*
=37	=37	=37	=37	=37	=37	=37
*^	*	*	*	*	*	*
(<16qqG/LL	.	.	.	.	.	.	.
(>16qqB-/JJ)	.	.	.	.	.	.	.
!	!	!LO:TX:a:B:t=con anima.	!LO:DY:rj	!	!	!	!
4E-	12E-L	2e-)	f	4E-	>	2G	.
.	12B-	.	.	.	.	.	.
.	12GJ	.	.	.	.	.	.
4D	12DL	.	.	4D	.	.	.
.	12B-	.	.	.	.	.	.
.	12GJ	.	.	.	.	.	.
!	!	!LO:TX:t=P:note-head-side tuplet number:problem	!	!	!	!	!
4D-X	12D-XL	(24dLL	.	4D-X	.	8.e-L)	.
.	.	24e-	.	.	.	.	.
.	12B-	24f	.	.	.	.	.
.	.	24g	.	.	.	.	.
.	12E-J)	24a-	.	.	.	.	.
.	.	.	.	.	.	16GJk	.
.	.	24b-JJ)	.	.	.	.	.
!!LO:LB:g=original
=38	=38	=38	=38	=38	=38	=38	=38
!	!	!	!	!	!	!	!LO:DY:rj
4C	(>12CL	8dd-X^<L	.	4C	.	(<4A-	p
.	12A-	.	.	.	.	.	.
.	.	8ccJ	.	.	.	.	.
.	12E-J	.	.	.	.	.	.
!	!	!LO:TX:t=P:note-head=side tuplet number:problem	!	!	!	!	!
4BB-	12BB-L	(24gLL	.	4BB-	]	4B-	.
.	.	24b-	.	.	.	.	.
.	12d-X	24g	.	.	.	.	.
.	.	24b-	.	.	.	.	.
.	12E-J	24ff	.	.	.	.	.
.	.	24ee-JJ)	.	.	.	.	.
4AA-	12AA-L	(8dd-L	.	4AA-	.	4c	.
.	12c	.	.	.	.	.	.
.	.	8ccJ)	.	.	.	.	.
.	12E-J	.	.	.	.	.	.
=39	=39	=39	=39	=39	=39	=39	=39
4AA-	12AA-L	16bnLL	.	4AA-	<	4f)	.
.	.	16cc	.	.	.	.	.
.	12c	.	.	.	.	.	.
.	.	16dd	.	.	.	.	.
.	12FJ	.	.	.	.	.	.
.	.	16ccJJ	.	.	.	.	.
4C	12CL	8.fL	.	4C	[[	(<8.a-^<L	.
.	12A-	.	.	.	.	.	.
.	12FJ	.	.	.	.	.	.
.	.	16e-Jk	.	.	.	16gJk	.
4BB-	12BB-L	4d	.	4BB-	.	16gLL	.
.	.	.	.	.	.	16f	.
.	12A-	.	.	.	.	.	.
.	.	.	.	.	.	16e-	.
.	12FJ)	.	.	.	.	.	.
.	.	.	.	.	.	16fJJ	.
*v	*v	*	*	*	*	*	*
=40	=40	=40	=40	=40	=40	=40
!	!LO:TX:t=P:diminuendolike accent:problem	!	!LO:TX:t=P:diminuendolike accent:problem	!	!	!
4BBn\	4f^> 4A-<	.	4BBn^<	]	4d	.
8C\	8e- 8G<	.	8C)	.	8e-)	.
16r	16r	.	8r	.	8r	.
16E-\	16e-	.	.	.	.	.
*tuplet	*	*	*	*	*	*
!LO:TX:t=P:note-head-side tuplet number:problem	!LO:TX:t=P:note-head-side tuplet number:problem	!	!	!	!	!
(12E-L<	(12e-L	f	4r	.	4r	.
12BBn	12Bn	.	.	.	.	.
24r	24rd	.	.	.	.	.
24CJk)	24cJk)	.	.	.	.	.
!!LO:LB:g=original
=41	=41	=41	=41	=41	=41	=41
4F\ 4FF\	4d^> 4Bn 4A-<	.	(>4F^<	.	4a-^<	.
8E-\ 8EE-\	8e- 8c 8G<	.	8E-)	.	(<8g	.
8r	8r	.	8r	.	16r	.
.	.	.	.	.	16e-	.
!	!	!	!	!	!LO:TX:a:t=P:stem-side tuplet number:problem	!
4r	4r	.	4r	.	(>12e-L	.
.	.	.	.	.	12.Bn	.
.	.	.	.	.	24cJk))	.
=42	=42	=42	=42	=42	=42	=42
!	!	!LO:DY:rj	!	!LO:DY:rj	!	!
4AAn\ 4AAAn\	4e- 4c 4G-X<	f	4AAn^<	f	(<4g-X^<	.
8BB-\ 8BBB-\	8d-X 8B- 8F<	.	8BB-`<	.	8f)	.
*	*	*	*clefC4	*	*	*
8r	8r	.	16r	.	8r	.
.	.	.	16d-`>	.	.	.
!	!	!	!LO:TX:t=P:note-head-side tuplet number:problem	!	!	!
4r	4r	.	(>12dL	>	4r	.
.	.	.	12An	.	.	.
.	.	.	12B-J)	]	.	.
!!LO:LB:g=original
=43	=43	=43	=43	=43	=43	=43
4G	4b-^ 4d-X	.	[4f-X	.	(4G^>	.
*	*	*	*Xtuplet	*	*	*
8A-	8a- 8c-X	.	12f-^>L]	>	8A-)	.
.	.	.	12e-^>	.	.	.
8r	8r	.	.	.	8r	.
.	.	.	12d-X^>J	.	.	.
4r	4r	.	(12c-XL	.	4r	.
.	.	.	12B-	.	.	.
.	.	.	12A-J)	]	.	.
*ped	*	*	*clefF4	*	*	*
=44	=44	=44	=44	=44	=44	=44
!	!	!LO:DY:rj	!	!	!	!
4F-X\ 4FF-X\	4a- 4dn 4A-<	fz	2.F-X^<	]	4.cc-X^<	.
8F-	8aa-/ 8dd/ 8a- 8f-y/	fz	.	.	.	.
*Xped	*	*	*	*	*	*
8r	8r	.	.	.	(>8cc-	.
!	!	!	!	!	!LO:TX:a:t=P:note-head-side tuplet number:problem	!
8.r	8.r	.	.	.	12cc-L<	.
.	.	.	.	.	12g	.
.	.	.	.	.	12a-J)	.
!	!	!LO:DY:rj	!	!	!	!
16F-X\ 16FF-X\	16d 16A-<	fz	.	.	.	.
=45	=45	=45	=45	=45	=45	=45
*ped	*Xtuplet	*	*	*	*	*
2.E-\ 2.EE-\	(>12e-L	p	4.E-	.	2g^<$	.
!	!LO:TX:b:t=legatiss.	!	!	!	!	!
.	12G<	.	.	.	.	.
.	12B-<J	.	.	.	.	.
.	12e-L	.	.	.	.	.
.	12G<	.	.	.	.	.
.	.	.	8E-	.	.	.
.	12B-<J	.	.	.	.	.
.	12G<L	.	(<12E-L	.	(<8.gL	<
.	12B-<	.	12.AAn	.	.	.
*Xped	*	*	*	*	*	*
.	12e-J)	.	.	.	.	.
.	.	.	.	.	16a-Jk	.
*	*	*	*tuplet	*	*	*
.	.	.	24BB-Jk)	.	.	.
!!LO:LB:g=original
=46	=46	=46	=46	=46	=46	=46
*ped	*	*	*clefF4	*	*	*
2.D-X\ 2.DD-X\	12enL	.	(>2.D-X	[	4.b-/)	[
.	12G<	.	.	.	.	.
.	12B-<J	.	.	.	.	.
.	12eL	.	.	.	.	.
.	12G<	.	.	.	.	.
.	.	.	.	.	8b-/	.
.	12B-<J	.	.	.	.	.
!	!	!	!	!	!LO:TX:a:t=P:stem-side tuplet number:problem	!
.	12G<L	.	.	.	12b-^<L	.
.	12B-<	.	.	.	(<12f#X	.
.	12eJ	.	.	.	12gJ	.
*Xped	*	*	*	*	*	*
=47	=47	=47	=47	=47	=47	=47
4C\ 4CC\	12e-XL	.	4C)	.	(2.b-)	.
.	12G-X<	.	.	.	.	.
.	12B-<J	.	.	.	.	.
!	!LO:TX:b:t=rinforz&colon;	!	!	!	!	!
8r	12e-L	.	8r	.	.	.
.	12G-<	.	.	.	.	.
!LO:TX:b:t=pesante	!	!	!	!	!	!
8C\ 8CC\	.	.	8C	.	.	.
.	12B-<J	.	.	.	.	.
!LO:TX:t=P:note-head-side tuplet number:problem	!	!	!LO:TX:t=P:stem-side tuplet number:problem	!	!	!
12CL< 12CC	12e-L	.	(<12CL	.	.	.
12FF 12FFF	12G-<	.	12FF	.	.	.
12GG-XJ 12GGG-X	12B-<J	.	12GG-XJ)	.	.	.
!!LO:LB:g=original
=48	=48	=48	=48	=48	=48	=48
2.C-X\ 2.CC-X\	12e-L	.	(<2.C-X^<	.	4.b-)	.
.	12F<	.	.	.	.	.
.	12A-X<J	.	.	.	.	.
.	12e-L	.	.	.	.	.
.	12F<	.	.	.	.	.
.	.	.	.	.	8a-	.
.	12A-<J	.	.	.	.	.
!	!	!	!	!	!LO:TX:t=P:stem-side tuplet number:problem	!
.	12e-L	.	.	.	12a-L	.
.	12A-<	.	.	.	(<12en	.
.	12a-J	.	.	.	24rf	.
.	.	.	.	.	24fJk)	.
!!LO:LB:g=original
*ped	*	*	*	*	*	*
=49	=49	=49	=49	=49	=49	=49
*^	*	*	*	*	*	*
.	.	8qa-/	.	.	.	.	.
!	!	!LO:TX:t=dolente.	!	!	!	!	!
*Xtuplet	*	*	*	*	*	*	*
12BB-L 12BBB-	4rDDDyy	4.aa-	.	4BB-)	.	[2.d	.
12BB-	.	.	.	.	.	.	.
12FJ	.	.	.	.	.	.	.
*clefG2	*	*	*	*	*	*	*
!LO:TX:a:t=legato.	!	!	!	!	!	!	!
12B-L	4B-	.	.	(>4B-	<	.	.
12f	.	.	.	.	.	.	.
.	.	16r	.	.	.	.	.
*Xped	*	*	*	*	*	*	*
12a-J	.	.	.	.	.	.	.
.	.	(16aa-	.	.	.	.	.
*	*	*tuplet	*	*	*	*	*
!	!	!LO:TX:t=P:note-head-side tuplet number:problem	!	!	!	!	!
12c-XL	4c-X	12aa-L	.	4c-X	.	.	.
12f	.	12dd)	.	.	.	.	.
12a-J	.	24rcc	.	.	.	.	.
.	.	24ee-Jk	.	.	.	.	.
=50	=50	=50	=50	=50	=50	=50	=50
!	!	!LO:TX:a:t=P:diminuendolike accent:problem	!	!	!	!	!
12B-L	4B-	(8.gg-X^<L	.	4.B-)	[	4d]	.
12d	.	.	.	.	.	.	.
12a-J	.	.	.	.	.	.	.
.	.	16ffJk)	.	.	.	.	.
12B-L	4B-	4ff	.	.	.	4r	.
12d	.	.	.	.	.	.	.
.	.	.	.	8B-	.	.	.
12a-J	.	.	.	.	.	.	.
!	!	!	!	!LO:TX:t=P:note-head-side tuplet number:problem	!	!	!
12B-L	4B-	4r	.	(>12B-L	.	4r	.
12d	.	.	.	12F	.	.	.
12b-J	.	.	.	12G-XJ)	.	.	.
=51	=51	=51	=51	=51	=51	=51	=51
.	.	8qff/	.	.	.	.	.
*	*	*Xtuplet	*	*	*	*	*
!	!	!	!	!	!	!	!LO:TX:a:t=1
12cc-XL 12A-	4A-	(12fffL	fz	(>4A-	<	2.rdd	.
12d	.	48dddLL	.	.	.	.	.
.	.	48ccc-X	.	.	.	.	.
.	.	48aa-	.	.	.	.	.
.	.	48bb-	.	.	.	.	.
12fJ	.	48ccc-	.	.	.	.	.
.	.	48aa-	.	.	.	.	.
.	.	48ff	.	.	.	.	.
.	.	48ee-JJJ)	]	.	.	.	.
12a-L	4c-X	8dd`>	.	4c-X	[>	.	.
12d	.	.	.	.	.	.	.
.	.	8r	.	.	.	.	.
12fJ	.	.	.	.	.	.	.
!	!	!LO:TX:a:t=P:rozpoczęcie łuku bez zakończenia:problem	!	!	!	!	!
12b-L	4B-	8.dd$L	<	4B-	]	.	.
12d	.	.	.	.	.	.	.
12fJ	.	.	.	.	.	.	.
.	.	16ee-Jk	[	.	.	.	.
!!LO:PB:g=original
=52	=52	=52	=52	=52	=52	=52	=52
12cc-XL 12A-X	4A-X	8.gg-XL	>	4A-)	]	4r	.
12d	.	.	.	.	.	.	.
12fJ	.	.	]	.	.	.	.
.	.	16ffJk	.	.	.	.	.
12a-L	4c-X	4ff	[	(>2c-X^<	.	(<4a-	>
12d	.	.	.	.	.	.	.
12fJ	.	.	.	.	.	.	.
*	*	*	*	*	*	*Xtuplet	*
12c-L	4c-	4r	.	.	.	24b-LL	.
.	.	.	.	.	.	24a-	.
12d-X	.	.	.	.	.	24g-X	.
.	.	.	.	.	.	24f	]
12fJ	.	.	.	.	.	24e-	.
.	.	.	.	.	.	24d-XJJ)	.
*	*	*	*	*	*	*tuplet	*
=53	=53	=53	=53	=53	=53	=53	=53
!	!	!	!	!	!	!	!LO:DY:rj
12B-L	4B-	[4dd-X	.	4B-)	.	2d-X	p
12g-X	.	.	.	.	.	.	.
12d-XJ	.	.	.	.	.	.	.
!	!	!	!LO:DY:a	!	!	!	!
*clefF4	*	*tuplet	*	*	*	*	*
!	!	!LO:TX:t=P:note-head-side tuplet number:problem	!	!	!	!	!
4F	12FL	(56dd-LLL]	<	(>2F^<	.	.	.
.	.	56ee-	.	.	.	.	.
.	.	56dd-	.	.	.	.	.
.	.	56cc	.	.	.	.	.
.	.	56dd-	.	.	.	.	.
!	!LO:TX:b:t=sempre\ legato.:dur=q:ext=s:problem:text with extention lines	!	!	!	!	!	!
.	12a-	.	.	.	.	.	.
.	.	56ee-	.	.	.	.	.
.	.	56ff	[	.	.	.	.
.	.	56gg-X	.	.	.	.	.
.	.	56aa-	>	.	.	.	.
.	.	56bb-	.	.	.	.	.
.	12d-XJ	.	.	.	.	.	.
.	.	56ccc-X	.	.	.	.	.
.	.	56aa-	.	.	.	.	.
.	.	56ff	.	.	.	.	.
.	.	56dd-JJJ)	]	.	.	.	.
4F	12FL	4cc-X^^>	.	.	.	[4a-	>
.	12a-X	.	.	.	.	.	.
.	12d-J	.	.	.	.	.	.
=54	=54	=54	=54	=54	=54	=54	=54
4G-X	12G-XL	[4b-	.	4G-X)	.	(<8a-L]	]
.	12d	.	.	.	.	.	.
.	.	.	.	.	.	8g-XJ	.
.	12g-XJ 12B-	.	.	.	.	.	.
!	!	!LO:TX:t=P:note-head-side tuplet number:problem	!	!	!	!	!
4D	12DL	(56b-LLL]	<	2D^<	.	4f)	.
.	.	56cc-X	.	.	.	.	.
.	.	56b-	.	.	.	.	.
.	.	56an	.	.	.	.	.
.	.	56b-	.	.	.	.	.
.	12f	.	.	.	.	.	.
.	.	56ccn	[	.	.	.	.
.	.	56dd	.	.	.	.	.
.	.	56ee-	>	.	.	.	.
.	.	56ff	.	.	.	.	.
.	.	56gg-X	.	.	.	.	.
!	!	!	!LO:DY:a	!	!	!	!
.	12B-J	.	.	.	.	.	.
.	.	56aa-X	.	.	.	.	.
.	.	56ff	.	.	.	.	.
.	.	56dd	.	.	.	.	.
.	.	56b-JJJ)	]	.	.	.	.
4D	12DL	4a^^>\	.	.	.	8.B-L	.
.	12f	.	.	.	.	.	.
.	12B-J	.	.	.	.	.	.
.	.	.	.	.	.	16fJk	.
*v	*v	*	*	*	*	*	*
!!LO:LB:g=original
=55	=55	=55	=55	=55	=55	=55
!	!	!	!LO:TX:t=P:diminuendolike accent:problem	!	!	!
!	!	!	!LO:TX:t=P:cres na górze:problem	!LO:HP:a	!	!
12E-L	8.g-X^<L	.	(>8.E-^<L	<	(<8.e-L	.
12B-	.	.	.	.	.	.
12D-XJ	.	.	.	.	.	.
.	16fJk	.	16D-XJk)	.	16fJk	.
12C-XL	4e-T<	.	(<2C-X	<	4g-X	.
12G-X	.	.	.	.	.	.
12B-J	.	.	.	.	.	.
.	16qqd/LL	.	.	.	.	.
.	16qqe-/JJ	.	.	.	.	.
12C-L	8.fL	.	.	.	8.a-L	<
12F	.	.	.	.	.	.
*ped	*	*	*	*	*	*
12c-XJ	.	.	.	.	.	.
.	16e-Jk	.	.	.	16anJk)	[[
!!LO:LB:g=original
=56	=56	=56	=56	=56	=56	=56
*	*Xtuplet	*	*	*	*	*
!	!LO:TX:a:t=sempre legato.	!	!	!	!	!LO:DY:a
!	!	!	!	!	!	!LO:DY:rj
!	!	!	!	!	!LO:TX:b:t=dolce.	!
[<2.BB-\ [2.BBB-\	12dL	p	4BB-)	.	(>2b-	p
*	*ped	*	*	*	*	*
.	12f	.	.	.	.	.
.	12F<J	.	.	.	.	.
!	!	!	!LO:TX:a:t=dolce.	!	!	!
!	!	!	!	!LO:DY:rj	!	!
.	12B-L	.	8DL	p	.	.
.	12F<	.	.	.	.	.
.	.	.	8FJ	.	.	.
.	12dJ	.	.	.	.	.
.	12fL	.	[4B-	<	4dd	.
.	12d	.	.	.	.	.
.	12F<J	.	.	.	.	.
*	*Xped	*	*	*	*	*
=57	=57	=57	=57	=57	=57	=57
*	*ped	*	*	*	*	*
2.BB-\] 2.BBB-\]	12e-L	.	4B-]	[	2cc	.
.	12f	.	.	.	.	.
.	12F<J	.	.	.	.	.
.	12cL	.	8AnL	>	.	.
.	12e-	.	.	.	.	.
.	.	.	8G	]	.	.
.	12gJ	.	.	.	.	.
.	12fL	.	8A	.	4f)	.
.	12e-	.	.	.	.	.
*	*	*	*clefC4	*	*	*
.	.	.	(8e-J	.	.	.
.	12F<J	.	.	.	.	.
*	*Xped	*	*	*	*	*
=58	=58	=58	=58	=58	=58	=58
*	*ped	*	*	*	*	*
[<2.BB-\ [2.BBB-\	12dL	.	4d)	.	(>2ff	>
.	12f	.	.	.	.	.
.	12F<J	.	.	.	.	.
*	*	*	*Xtuplet	*	*	*
.	12dL	.	(>20fLL	.	.	.
.	.	.	20g	.	.	.
.	12F<	.	.	.	.	.
.	.	.	20f	.	.	.
.	.	.	20en	.	.	.
.	12dJ	.	.	.	.	.
.	.	.	20fJJ	.	.	.
*	*	*	*tuplet	*	*	*
*	*	*	*clefG2	*	*	*
.	12fL	.	8ccL)	.	8ee-L	.
.	12d	.	.	.	.	.
.	.	.	[8b-J	.	8ddJ	]
.	12F<J	.	.	.	.	.
*	*Xped	*	*	*	*	*
=59	=59	=59	=59	=59	=59	=59
*	*ped	*	*	*	*	*
!	!LO:TX:t=smorz_:dur=10q:ext=ud:problem:text with extention lines	!	!	!	!	!
2.BB-\] 2.BBB-\]	12e-L	.	8b-L]	.	2cc	.
.	12f	.	.	.	.	.
.	.	.	(<8anJ	.	.	.
.	12F<J	.	.	.	.	.
.	12e-L	.	8aL	.	.	.
.	12F<	.	.	.	.	.
.	.	.	8g	.	.	.
.	12e-J	.	.	.	.	.
.	12fL	.	8f	.	8ddL	>
.	12e-	.	.	.	.	.
.	.	.	8e-J)	.	8ccJ	.
.	12F<J	.	.	.	.	.
!!LO:LB:g=original
*	*Xped	*	*	*	*	*
!!LO:LB:g=original
=60	=60	=60	=60	=60	=60	=60
!	!	!	!	!LO:DY:rj	!	!
!	!	!	!	!LO:DY:a	!	!
[<2.BB-\ [2.BBB-\	(12dL	.	[2.d	p	[2.b-)	.
.	12F<	.	.	.	.	.
*ped	*	*	*	*	*	*
.	12b-J	.	.	.	.	.
.	12B-L	.	.	.	.	.
.	12f	.	.	.	.	.
.	12ddJ	.	.	.	.	.
.	12b-L	.	.	.	.	.
.	12ff	.	.	.	.	.
.	12dJ	.	.	.	.	.
=61	=61	=61	=61	=61	=61	=61
4BB-\] 4BBB-\]	12ddL	.	4d]	.	4b-]	.
.	12f	.	.	.	.	.
.	12bb-J	.	.	.	.	.
4r	12b-L	.	4r	.	4r	.
.	12ff	.	.	.	.	.
.	12dddJ)	.	.	.	.	.
*	*8va	*	*	*	*	*
4r	12bb-L<	.	4r	.	4r	.
.	12fff	.	.	.	.	.
.	12ddJ	.	.	.	.	.
=62	=62	=62	=62	=62	=62	=62
!	!	!	!LO:TX:t=P:znak pionowy w takcie:problem	!	!LO:TX:t=P:pionowy znak w takcie:problem	!
2.rF	12dddL	.	2.rdd	.	2.rdd	.
.	12ff	.	.	.	.	.
.	12bbb-J	.	.	.	.	.
.	12ffL	.	.	.	.	.
.	12ddd	.	.	.	.	.
.	12bbb-J	.	.	.	.	.
.	12dddL	.	.	.	.	.
.	12bbb-	.	.	.	.	.
.	12ffJ	.	.	.	.	.
*	*Xped	*	*clefF4	*	*	*
=63	=63	=63	=63	=63	=63	=63
4rC	4bbb-	.	2.rdd	.	2.rdd	.
*	*X8va	*	*	*	*	*
8.rC	8.r	.	.	.	.	.
!	!	!LO:DY:rj	!	!	!	!
!	!LO:TX:a:t=loco.	!LO:DY:b=2	!	!	!	!
16BB-\	(<16B-<	p	.	.	.	.
*	*tuplet	*	*	*	*	*
12C-XL<	(>12c-X<L)	.	.	.	.	.
12BB-	12B-<	.	.	.	.	.
24rC	24re<	.	.	.	.	.
24FJk	(>24f<Jk)	.	.	.	.	.
=64	=64	=64	=64	=64	=64	=64
!	!LO:TX:t=stretto.	!	!	!	!	!
4AAn\	4An<)	.	2.rdd	.	2.rdd	.
8rAA	8rG<	.	.	.	.	.
8BB-\	&(<8B-<	<	.	.	.	.
12C-XL<	(>12c-X<L	.	.	.	.	.
12BB-	12B-<&)	.	.	.	.	.
24rC	24rB<	.	.	.	.	.
24FJk	(>24f<Jk)	.	.	.	.	.
=65	=65	=65	=65	=65	=65	=65
4AAn\	4An<)	.	2.rdd	.	2.rdd	.
!	!LO:TX:t=pesante.	!	!	!	!	!
8rAA	8rG<	.	.	.	.	.
8BB-\ 8BBB-\	8B-<	f	.	.	.	.
!	!LO:TX:t=P:stem-side tuplet number:problem	!	!	!	!	!
12C-XL< 12CC-X	(>12c-X<L	.	.	.	.	.
12BB- 12BBB-	12B-<	.	.	.	.	.
12FJ 12FF	12f<J)	.	.	.	.	.
!!LO:LB:g=original
=66	=66	=66	=66	=66	=66	=66
!	!	!LO:DY:rj	!	!	!	!
2.AAn\ 2.AAAn\	2.An<^>	fz	4r	.	4r	pp
.	.	.	(4AA'<	.	(<4An	.
.	.	.	4AA'<	.	4A	.
!!LO:LB:g=original
=67	=67	=67	=67	=67	=67	=67
!	!	!LO:DY:rj	!	!	!	!
4An	4g^^> 4en^^> 4c#X^^>	p	4.AA)	.	4.An)	.
8.r	8.r	.	.	.	.	.
.	.	.	8r	.	8r	.
16A	(<16any	.	.	.	.	.
*tuplet	*	*	*	*	*	*
!LO:TX:t=P:note-head-side tuplet number:problem	!LO:TX:t=P:note-head-side tuplet number:problem	!	!	!	!	!
12B-L	12b-L>	.	4r	.	4r	.
12A	12a)	.	.	.	.	.
24rG	24r	.	.	.	.	.
24enJk	(24eenJk	.	.	.	.	.
=68	=68	=68	=68	=68	=68	=68
4.En	4.an^^> 4.g^^> 4.c#X^^>)	.	4.En	.	4.c#X^<	.
8r	8r	.	8E	.	8r	.
!	!	!	!LO:TX:t=P:note-head-side tuplet number:problem	!	!	!
4r	4r	.	(>12EL	.	4r	.
.	.	.	12.An^<	.	.	.
.	.	.	24GJk)	.	.	.
=69	=69	=69	=69	=69	=69	=69
*	*^	*	*	*	*	*
4.F	4cc-X^>	4.a-X 4.d	.	4.F	.	4.d^<	.
.	8b-	.	.	.	.	.	.
16r	16r	8ryy	.	8r	.	8r	.
16B-	16b-\	.	.	.	.	.	.
!LO:TX:t=P:note-head-side tuplet number:problem	!LO:TX:t=P:note-head-side tuplet number:problem	!	!	!	!	!	!
12c-XL	(12cc-XL<	4ryy	<	4r	.	4r	.
12B-	12b-)	.	.	.	.	.	.
24rG	24r	.	[	.	.	.	.
24fJk	(>24ffJk	.	.	.	.	.	.
=70	=70	=70	=70	=70	=70	=70	=70
!	!	!	!	!LO:TX:b:t=espres e ritard.	!	!LO:TX:a:t=1	!
!	!	!	!	!	!	!LO:TX:t=ritard.	!
4.F	4cc-X^>)	4.a- 4.d	.	4.F^<	.	2.rdd	.
.	8b-	.	.	.	.	.	.
8r	8r	8rcyy	.	8En	.	.	.
!	!	!	!	!LO:TX:a:t=P:stem-side tuplet number:problem	!	!	!
4r	4r	4rdyy	.	(>12F^<L	.	.	.
.	.	.	.	12.c	.	.	.
.	.	.	.	24B-Jk)	.	.	.
!!LO:LB:g=original
=71	=71	=71	=71	=71	=71	=71	=71
*^	*	*	*	*	*	*	*
!	!	!	!	!	!LO:TX:a:B:t=a tempo.	!	!LO:TX:b:B:t=a tempo.	!
2B-	4E-	4.ee-	4g	.	2B-	<	(<4g	.
!	!	!	!LO:TX:t=strette.	!	!	!	!	!
.	2F	.	2a-	.	.	.	4..a-^<)	.
!	!	!LO:TX:t=P:note-head-side tuplet number:problem	!	!	!	!	!	!
.	.	(<40ddLLL	.	.	.	.	.	.
.	.	40ee-	.	.	.	.	.	.
.	.	40dd	.	.	.	.	.	.
.	.	40cc#X	.	.	.	.	.	.
.	.	40ddJJJ)	.	.	.	.	.	.
!LO:TX:t=P:note-head-side tuplet number:problem	!	!LO:TX:t=P:diminuendolike accent:problem	!	!	!LO:TX:a:t=P:note-head-side tuplet number:problem	!	!	!
12c-XL	.	(<8.gg^<L	.	.	(>12c-X^<L	.	.	.
12B-	.	.	.	.	12B-	.	.	.
*	*	*	*	*	*clefC4	*	*	*
24rd	.	.	.	.	24rB	.	.	.
.	.	16ffJk	.	.	.	.	(<16f	.
24dJk	.	.	.	.	(>24dJk)	.	.	.
*v	*v	*	*	*	*	*	*	*
*	*v	*v	*	*	*	*	*
=72	=72	=72	=72	=72	=72	=72
!	!LO:S:s=1:note:problem:note-level slur	!	!	!	!	!
4G	4b-) 4e-	.	8e-)	.	8.b-L)	.
.	.	.	8r	.	.	.
.	.	.	.	.	16e-Jk	.
.	.	.	.	.	8qe-/	.
*	*	*	*clefF4	*	*	*
!	!	!	!LO:TX:a:t=appassionato.	!LO:DY:rj	!	!LO:DY:rj
4A-: 4E-: 4C: 4AA-:	4cc: 4a-: 4e-: 4c:	f	4AA-X^<	f	4cc	f
!	!	!	!LO:TX:t=P:note-head-side tuplet number:problem	!	!	!
4r	4r	.	(<24AA-LL	.	4r	.
.	.	.	24BB-	.	.	.
.	.	.	24AA-	.	.	.
.	.	.	24GG	.	.	.
.	.	.	24AA-	.	.	.
.	.	.	24BB-JJ)	.	.	.
!!LO:LB:g=original
=73	=73	=73	=73	=73	=73	=73
!	!	!	!	!	!	!LO:DY:rj
*	*	*	*	*	*Xtuplet	*
!	!	!	!	!	!LO:TX:a:t=P:obiegnik przekreślony:problem	!
4Bn: 4A-X: 4F: 4D: 4BBny:	4dd: 4a-X: 4f: 4d:	ff	(<4BBn	.	(12dd$L	f
.	.	.	.	.	12.ff	.
.	.	.	.	.	24ee-^<Jk)	.
*	*	*	*	*	*tuplet	*
8c: 8An: 8F#X: 8E-: 8C:	8ee-: 8an: 8f#X: 8e-:	.	8C)	.	8ee-`>	.
8r	8r	.	8r	.	8r	.
4r	4r	.	4r	.	4r	.
!!LO:LB:g=original
=74	=74	=74	=74	=74	=74	=74
!	!	!	!LO:TX:a:t=1	!	!LO:TX:a:t=1	!
2.rF	4.g-X	p	2.rF	.	2.rdd	.
.	(8g-	.	.	.	.	.
*	*Xtuplet	*	*	*	*	*
.	12g-L	.	.	.	.	.
.	12d	.	.	.	.	.
.	24rd	.	.	.	.	.
.	24e-Jk)	.	.	.	.	.
=75	=75	=75	=75	=75	=75	=75
!	!	!	!LO:TX:b:t=dolce.	!	!	!
(4.B-	[<2.gn [2.e- [2.B-	.	[2.B-	.	[2.g	.
8G)	.	.	.	.	.	.
!LO:TX:t=P:note-head-side tuplet number:problem	!	!	!	!	!	!
(12GL	.	.	.	.	.	.
12.D	.	.	.	.	.	.
24E-Jk)	.	.	.	.	.	.
=76	=76	=76	=76	=76	=76	=76
4BB-	4g] 4e-] 4B-]	.	2B-]	.	4.g]	.
4r	4r	.	.	.	.	.
.	.	.	.	.	(<16a-LL	.
.	.	.	.	.	16gJJ	.
!	!	!	!LO:TX:t=P:diminuendolike accent:problem	!	!	!
4ryy	4r	.	8A-^<L	.	16f#XL)	<
.	.	.	.	.	(<16g	[
.	.	.	8GJ	.	16.cc	>
.	.	.	.	.	32b-Jk	]
=77	=77	=77	=77	=77	=77	=77
2.rF	2.rdd	.	8GL	.	2e-)	.
.	.	.	16A-L	.	.	.
.	.	.	16GJJ	.	.	.
.	.	.	(>8F#XL	<	.	.
.	.	.	8G	.	.	.
.	.	.	8c	.	8.a-^<L	.
.	.	.	8B-J	[	.	.
.	.	.	.	.	(<16gJk	.
!!LO:LB:g=original
=78	=78	=78	=78	=78	=78	=78
2.rF	2.rdd	.	4An	>	4f	.
.	.	.	4A-X	.	4c	.
.	.	.	4F	.	4d)	.
=79	=79	=79	=79	=79	=79	=79
!	!	!	!	!LO:DY:rj	!	!
8EE-L	4G< 4BB-<	p	4E-)	p	4e-	.
8EE-J	.	.	.	.	.	.
!	!	!	!	!	!	!LO:DY:a
!	!	!	!	!	!	!LO:DY:rj
!	!	!	!	!	!LO:TX:a:t=P:note-head-side tuplet number:problem	!
8EE-L	2A-<^> 2C-X<	.	(>2A-^<	.	(<20dLL	p
.	.	.	.	.	20e-	.
.	.	.	.	.	20d	.
16rDD	.	.	.	.	.	.
.	.	.	.	.	20c#X	.
(16EE-J	.	.	.	.	.	.
.	.	.	.	.	20dJJ)	.
!LO:TX:t=P:note-head-side tuplet number:problem	!	!	!	!	!	!
12EE-L	.	.	.	.	(<8.g^<L	.
12AAA-)	.	.	.	.	.	.
24rDD	.	.	.	.	.	.
.	.	.	.	.	16fJk	.
(24CC-XJk	.	.	.	.	.	.
=80	=80	=80	=80	=80	=80	=80
8EE-L)	4G< 4BB-<	pp	4G)	.	4e-)	.
8EE-J	.	.	.	.	.	.
!	!	!	!	!	!LO:TX:a:t=P:note-head-side tuplet number:problem	!
8EE-L	2A-<^> 2C-X<	.	2A-^<	.	(<20dLL	.
.	.	.	.	.	20e-	.
.	.	.	.	.	20d	.
16rDD	.	.	.	.	.	.
.	.	.	.	.	20c#X	.
(16EE-J	.	.	.	.	.	.
.	.	.	.	.	20dJJ)	.
!LO:TX:t=P:note-head-side tuplet number:problem	!	!	!	!	!	!
12EE-L	.	.	.	.	8.g^<L	.
12AAA-)	.	.	.	.	.	.
24rDD	.	.	.	.	.	.
.	.	.	.	.	(<16fJk	.
24CC-XJk	.	.	.	.	.	.
=81	=81	=81	=81	=81	=81	=81
8EE-	8G< 8BB-<	.	8G	pp	8e-)	.
16rDD	16rF<	.	8r	.	8r	.
!	!LO:TX:t=smorzando.	!	!	!	!	!
16EE-	[>16E-<	.	.	.	.	.
*Xtuplet	*tuplet	*	*	*	*	*
!	!LO:TX:t=P:stem-side tuplet number:problem	!	!LO:TX:a:t=e rallent.	!	!	!LO:DY:rj
12EE-L	12E-<L]	.	8EE-	.	8e-^> 8G	p
12AAAn	12AAn<	.	.	.	.	.
.	.	.	8r	.	8r	.
24rBBB	24r<	.	.	.	.	.
24BBB-Jk	[>24BB-<Jk	.	.	.	.	.
!	!LO:TX:t=P:stem-side tuplet number:problem	!	!	!	!	!LO:DY:rj
!	!	!	!	!	!	!LO:DY:a
12BBB-L	12BB-<L]	.	8EE-	.	8e-^> 8G	pp
12FFF#X	12FF#X<	.	.	.	.	.
.	.	.	8r	.	8r	.
24rGGG	24rAA<	.	.	.	.	.
24GGGJk	24GG<Jk	.	.	.	.	.
=82	=82	=82	=82	=82	=82	=82
!LO:TX:t=P:con 8va jako "8" pod 4EE-<:problem	!	!	!	!	!	!LO:DY:a
4EEE-;/	4EE-<	.	4EE-	.	4e- 4G	ppp
4rC	4r	.	4r	.	4r	.
4rC	4r	.	4r	.	4r	.
==	==	==	==	==	==	==
*-	*-	*-	*-	*-	*-	*-
!!!system-decoration: s1,s2{(s3,s4)}
!!title: @{OTL}; @{OPS} @{ONM} publisher: @{PPR}
!!!RDF**kern: > = above
!!!RDF**kern: < = below
!!!RDF**kern: N = linked
!!!RDF**dynam: > = "dim.", fontstyle="normal"
!!!RDF**dynam: < = "cres.", fontstyle="normal"
!!!RDF**kern: i = editorial accidental
!!!ENC: Emilia Ziętek
!!!END: 2019-10-09
!!!EED: Jędrzej Mróz
!!!EST: revision finished 2019-10-10
!!!rism-genre: Trio
!!!rism-key: G minor
!!!rism-opus: op.  8
!!!rism-title: Trio in G minor op.  8
!!!rism-permalink: https://opac.rism.info/search?id=300605222&View=rism
!!!END: 2019-09-30
